X: 1849
T: Salamanca Castanets
C:trad
B: australian traditional tunes wiki
M:3/4
L:1/8
R: Waltz
Q: 1/4=100
K:Gm
V:1 
dc|"Gm"Bd Gd Bd|"Dm7"cdA2dc|"Gm"Bd GB AG|"D7"A^F Dd cA|
"Gm"Bd Gd "Gm"bd|"Cm"cde2dc|"Gm"Bd BG "D"A^F|"Gm"G2g2:|
fd|"Bb"Bc de fg|fdB2dB|"F"AB cd ec|AGF2GA|
"Bb"Bc de fg|fdB2dc|"Gm"BA BG "D"A^F|"Gm"G2g2:|
d2|"Dm"cc/B/ AB cA|"Gm"BAG2B2|"D"AA/G/ ^FG AF|"Gm"GBd2D2|
"Dm"cc/B/ AB cA|"Gm"BA GB AG|"Dm7"Ac BA "D7"G^F|"Gm"G2G2:|
% abcbook-tune_id 6342d53af77a1e2c3482786f


% abcbook-boost 0
% abcbook-tablature 
% abcbook-transpose 
% abcbook-lastupdated 1665324387876
% abcbook-soundfonts 
% abcbook-repeats 1
% NFF Book 2020
% Bush Traditions recording played by Roland Clarke

